X:1
Q:1/4=120
L:1/16
M:4/4
K:C clef=G2
V:1
%%MIDI program 75
C4A8G4|G4F8C4|C4c8^A4|c4A12|
F4d4d4d4|d4c8A4|c4c4^A2A2^A4|c4A12|
F4d4d4f4|d4c8A4|c4c4^A2A2^A4|G4F8z4|
C4A8G4|G4F8C4|C4c8^A4|c4A12|
F4d4d4d4|d4c8A4|c4c4^A2A2^A4|c4A12|
F4d4d4f4|d4c8A4|c4c4^A2A2^A4|G4F8z4|
C4A8G4|G4F8C4|C4c8^A4|c4A12|
F4d4d4d4|d4c8A4|c4c4^A2A2^A4|c4A12|
F4d4d4f4|d4c8A4|c4c4^A2A2^A4|G4F8
L:1/16
M:4/4
K:C clef=G2
V:2
%%MIDI program 53
C4F8E4|E4F8C4|C4A8G4|E4F12|
F4^A4^A4^A4|^A4A8F4|A4A4G2F2G4|E4F12|
F4^A4^A4^A4|^A4A8F4|A4A4G2F2G4|E4F8z4|
C4F8E4|E4F8C4|C4A8G4|E4F12|
F4^A4^A4^A4|^A4A8F4|A4A4G2F2G4|E4F12|
F4^A4^A4^A4|^A4A8F4|A4A4G2F2G4|E4F8z4|
C4F8E4|E4F8C4|C4A8G4|E4F12|
F4^A4^A4^A4|^A4A8F4|A4A4G2F2G4|E4F12|
F4^A4^A4^A4|^A4A8F4|A4A4G2F2G4|E4F8
L:1/16
M:4/4
K:C clef=F4
V:3
%%MIDI program 52
C4C8^A,4|^A,4A,8A,4|A,4F4C4C4|C4C12|
C4F4F4D4|F4F8C4|C4C4C4C4|C4C12|
C4F4F4D4|F4C8C4|C4C4C4C4|^A,4A,8z4|
C4C8^A,4|^A,4A,8A,4|A,4F4C4C4|C4C12|
C4F4F4D4|F4F8C4|C4C4C4C4|C4C12|
C4F4F4D4|F4C8C4|C4C4C4C4|^A,4A,8z4|
C4C8^A,4|^A,4A,8A,4|A,4F4C4C4|C4C12|
C4F4F4D4|F4F8C4|C4C4C4C4|C4C12|
C4F4F4D4|F4C8C4|C4C4C4C4|^A,4A,8
L:1/16
M:4/4
K:C clef=F4
V:4
%%MIDI program 52
C,4F,8C,4|C,4F,8F,4|F,4F,8E,4|C,4F,12|
F,4^A,,4C,4D,4|E,4F,8F,4|F,4C,4C,4C,4|C,4F,12|
F,4^A,4^A,4^A,4|D,4F,8F,4|F,4C,4C,4C,4|C,4F,8z4|
C,4F,8C,4|C,4F,8F,4|F,4F,8E,4|C,4F,12|
F,4^A,,4C,4D,4|E,4F,8F,4|F,4C,4C,4C,4|C,4F,12|
F,4^A,4^A,4^A,4|D,4F,8F,4|F,4C,4C,4C,4|C,4F,8z4|
C,4F,8C,4|C,4F,8F,4|F,4F,8E,4|C,4F,12|
F,4^A,,4C,4D,4|E,4F,8F,4|F,4C,4C,4C,4|C,4F,12|
F,4^A,4^A,4^A,4|D,4F,8F,4|F,4C,4C,4C,4|C,4F,8
L:1/16
M:4/4
K:C clef=G2
V:5
%%MIDI program 100
C4A8G4|G4F8C4|C4c8^A4|c4A12|
F4d4d4d4|d4c8A4|c4c4^A2A2^A4|c4A12|
F4d4d4f4|d4c8A4|c4c4^A2A2^A4|G4F8z4|
z16|z16|C4A8G4|G4F8C4|
C4c8^A4|c4A12|F4d4d4d4|d4c8A4|
c4c4^A2A2^A4|c4A12|c4c4^A2A2^A4|G4F8z4|
C4A8G4|G4F8C4|C4c8^A4|c4A12|
F4d4d4d4|d4c8A4|c4c4^A2A2^A4|c4A12|
F4d4d4f4|d4c8A4|c4c4^A2A2^A4|G4F8
L:1/16
M:4/4
K:C clef=F4
V:6
%%MIDI program 16
C,4F,8C,4|C,4F,8F,4|F,4F,8E,4|C,4F,12|
F,4^A,,4C,4D,4|E,4F,8F,4|F,4C,4C,4C,4|C,4F,12|
F,4^A,4^A,4^A,4|D,4F,8F,4|F,4C,4C,4C,4|C,4F,8z4|
C,4F,8C,4|C,4F,8F,4|F,4F,8E,4|C,4F,12|
F,4^A,,4C,4D,4|E,4F,8F,4|F,4C,4C,4C,4|C,4F,12|
F,4^A,4^A,4^A,4|D,4F,8F,4|F,4C,4C,4C,4|C,4F,8z4|
C,4F,8C,4|C,4F,8F,4|F,4F,8E,4|C,4F,12|
F,4^A,,4C,4D,4|E,4F,8F,4|F,4C,4C,4C,4|C,4F,12|
F,4^A,4^A,4^A,4|D,4F,8F,4|F,4C,4C,4C,4|C,4F,8
L:1/16
M:4/4
K:C clef=G2
V:7
%%MIDI program 48
C4F8E4|E4F8C4|C4A8G4|E4F12|
F4^A4^A4^A4|^A4A8F4|A4A4G2F2G4|E4F12|
F4^A4^A4^A4|^A4A8F4|A4A4G2F2G4|E4F8z4|
C4F8E4|E4F8C4|C4A8G4|E4F12|
F4^A4^A4^A4|^A4A8F4|A4A4G2F2G4|E4F12|
F4^A4^A4^A4|^A4A8F4|A4A4G2F2G4|E4F8z4|
C4F8E4|E4F8C4|C4A8G4|E4F12|
F4^A4^A4^A4|^A4A8F4|A4A4G2F2G4|E4F12|
F4^A4^A4^A4|^A4A8F4|A4A4G2F2G4|E4F8
L:1/16
M:4/4
K:C clef=F4
V:8
%%MIDI program 48
C4C8^A,4|^A,4A,8A,4|A,4F4C4C4|C4C12|
C4F4F4D4|F4F8C4|C4C4C4C4|C4C12|
C4F4F4D4|F4C8C4|C4C4C4C4|^A,4A,8z4|
z16|z16|C4C8^A,4|^A,4A,8A,4|
A,4F4C4C4|C4C12|C4F4F4D4|F4F8C4|
C4C4C4C4|C4C12|C4C4C4C4|^A,4A,8z4|
C4C8^A,4|^A,4A,8A,4|A,4F4C4C4|C4C12|
C4F4F4D4|F4F8C4|C4C4C4C4|C4C12|
C4F4F4D4|F4C8C4|C4C4C4C4|^A,4A,8
L:1/16
M:4/4
K:C clef=G2
V:9
%%MIDI program 75
C4A8G4|G4F8C4|C4c8^A4|c4A12|
F4d4d4d4|d4c8A4|c4c4^A2A2^A4|c4A12|
F4d4d4f4|d4c8A4|c4c4^A2A2^A4|G4F8z4|
C4A8G4|G4F8C4|C4c8^A4|c4A12|
F4d4d4d4|d4c8A4|c4c4^A2A2^A4|c4A12|
F4d4d4f4|d4c8A4|c4c4^A2A2^A4|G4F8z4|
C4A8G4|G4F8C4|C4c8^A4|c4A12|
F4d4d4d4|d4c8A4|c4c4^A2A2^A4|c4A12|
F4d4d4f4|d4c8A4|c4c4^A2A2^A4|G4F8
L:1/16
M:4/4
K:C clef=F4
V:10
%%MIDI program 16
C,4F,8C,4|C,4F,8F,4|F,4F,8E,4|C,4F,12|
F,4^A,,4C,4D,4|E,4F,8F,4|F,4C,4C,4C,4|C,4F,12|
F,4^A,4^A,4^A,4|D,4F,8F,4|F,4C,4C,4C,4|C,4F,8z4|
C,4F,8C,4|C,4F,8F,4|F,4F,8E,4|C,4F,12|
F,4^A,,4C,4D,4|E,4F,8F,4|F,4C,4C,4C,4|C,4F,12|
F,4^A,4^A,4^A,4|D,4F,8F,4|F,4C,4C,4C,4|C,4F,8z4|
C,4F,8C,4|C,4F,8F,4|F,4F,8E,4|C,4F,12|
F,4^A,,4C,4D,4|E,4F,8F,4|F,4C,4C,4C,4|C,4F,12|
F,4^A,4^A,4^A,4|D,4F,8F,4|F,4C,4C,4C,4|C,4F,8
L:1/16
M:4/4
K:C clef=G2
V:11
%%MIDI program 48
C4F8E4|E4F8C4|C4A8G4|E4F12|
F4^A4^A4^A4|^A4A8F4|A4A4G2F2G4|E4F12|
F4^A4^A4^A4|^A4A8F4|A4A4G2F2G4|E4F8z4|
C4F8E4|E4F8C4|C4A8G4|E4F12|
F4^A4^A4^A4|^A4A8F4|A4A4G2F2G4|E4F12|
F4^A4^A4^A4|^A4A8F4|A4A4G2F2G4|E4F8z4|
C4F8E4|E4F8C4|C4A8G4|E4F12|
F4^A4^A4^A4|^A4A8F4|A4A4G2F2G4|E4F12|
F4^A4^A4^A4|^A4A8F4|A4A4G2F2G4|E4F8


